public/logos/QB.svg

<?xml version="1.0" encoding="UTF-8"?>
<svg xmlns="http://www.w3.org/2000/svg" xmlns:xlink="http://www.w3.org/1999/xlink" width="176.67pt" height="33.51pt" viewBox="0 0 176.67 33.51" version="1.1">
<defs>
<clipPath id="clip1">
  <path d="M 2 15 L 90 15 L 90 33.511719 L 2 33.511719 Z M 2 15 "/>
</clipPath>
<clipPath id="clip2">
  <path d="M 0 15 L 90 15 L 90 33.511719 L 0 33.511719 Z M 0 15 "/>
</clipPath>
<clipPath id="clip3">
  <path d="M 168 10 L 176.671875 10 L 176.671875 22 L 168 22 Z M 168 10 "/>
</clipPath>
</defs>
<g id="surface1">
<path style=" stroke:none;fill-rule:nonzero;fill:rgb(93.771362%,19.940186%,21.476746%);fill-opacity:1;" d="M 65.785156 14.726562 C 65.785156 20.324219 61.246094 24.859375 55.652344 24.859375 C 50.054688 24.859375 45.519531 20.324219 45.519531 14.726562 C 45.519531 9.128906 50.054688 4.59375 55.652344 4.59375 C 61.246094 4.59375 65.785156 9.128906 65.785156 14.726562 "/>
<path style=" stroke:none;fill-rule:nonzero;fill:rgb(93.771362%,19.940186%,21.476746%);fill-opacity:1;" d="M 51.695312 15.132812 C 51.695312 15.132812 28.765625 15.132812 24.132812 15.132812 C 30.65625 3.78125 44.707031 0.269531 44.707031 0.269531 L 72.269531 0.269531 C 72.269531 0.269531 54.707031 4.863281 51.695312 15.132812 "/>
<path style=" stroke:none;fill-rule:nonzero;fill:rgb(100%,100%,100%);fill-opacity:1;" d="M 24.605469 14.863281 L 51.496094 14.863281 C 53.152344 9.566406 58.644531 5.824219 62.988281 3.609375 C 65.90625 2.121094 68.710938 1.105469 70.441406 0.539062 L 44.742188 0.539062 C 44.007812 0.734375 30.941406 4.316406 24.605469 14.863281 Z M 51.898438 15.402344 L 23.667969 15.402344 L 23.898438 14.996094 C 30.402344 3.679688 44.5 0.0429688 44.640625 0.0078125 L 44.707031 0 L 74.371094 0 L 72.339844 0.53125 C 72.164062 0.578125 54.886719 5.203125 51.957031 15.207031 L 51.898438 15.402344 "/>
<g clip-path="url(#clip1)" clip-rule="nonzero">
<path style=" stroke:none;fill-rule:nonzero;fill:rgb(93.771362%,19.940186%,21.476746%);fill-opacity:1;" d="M 2.6875 15.941406 L 51.867188 15.941406 C 51.867188 15.941406 49.4375 24.589844 89.429688 33.238281 C 89.160156 33.507812 2.6875 15.941406 2.6875 15.941406 "/>
</g>
<g clip-path="url(#clip2)" clip-rule="nonzero">
<path style=" stroke:none;fill-rule:nonzero;fill:rgb(100%,100%,100%);fill-opacity:1;" d="M 5.375 16.210938 C 27.390625 20.679688 61.695312 27.613281 78.878906 30.988281 C 59.480469 25.816406 53.839844 20.921875 52.230469 18.25 C 51.664062 17.3125 51.566406 16.605469 51.570312 16.210938 Z M 89.40625 33.511719 C 87.835938 33.511719 6.113281 16.914062 2.632812 16.207031 L 0 15.671875 L 52.226562 15.671875 L 52.128906 16.015625 C 52.128906 16.019531 51.949219 16.773438 52.738281 18.042969 C 54.609375 21.054688 61.867188 27 89.484375 32.972656 L 89.96875 33.078125 L 89.539062 33.507812 L 89.40625 33.511719 "/>
</g>
<path style=" stroke:none;fill-rule:nonzero;fill:rgb(93.771362%,19.940186%,21.476746%);fill-opacity:1;" d="M 88.484375 14.285156 C 88.476562 12.730469 88.019531 11.421875 87.023438 10.328125 C 85.191406 8.320312 82.261719 8.367188 80.472656 10.417969 C 78.820312 12.320312 78.636719 15.183594 80.03125 17.347656 C 81.816406 20.113281 85.457031 20.214844 87.398438 17.554688 C 88.121094 16.554688 88.460938 15.429688 88.484375 14.285156 Z M 90.105469 19.175781 C 90.980469 19.175781 91.632812 19.1875 92.285156 19.171875 C 92.761719 19.164062 92.96875 19.359375 92.949219 19.847656 C 92.921875 20.46875 92.941406 21.089844 92.941406 21.835938 C 92.460938 21.835938 92.0625 21.835938 91.660156 21.835938 C 89.019531 21.839844 86.378906 21.855469 83.734375 21.832031 C 81.871094 21.816406 80.132812 21.34375 78.585938 20.261719 C 74.054688 17.101562 74.191406 10.933594 78.851562 7.945312 C 82.265625 5.757812 87.03125 6.234375 89.828125 9.039062 C 92.40625 11.628906 92.746094 15.339844 90.679688 18.347656 C 90.539062 18.550781 90.398438 18.753906 90.105469 19.175781 "/>
<path style=" stroke:none;fill-rule:nonzero;fill:rgb(93.771362%,19.940186%,21.476746%);fill-opacity:1;" d="M 155 10.507812 C 154.917969 10.511719 154.839844 10.515625 154.757812 10.519531 C 154.039062 12.085938 153.320312 13.652344 152.542969 15.347656 C 154.171875 15.335938 155.617188 15.511719 157.160156 15.292969 C 156.402344 13.617188 155.699219 12.0625 155 10.507812 Z M 162.554688 21.824219 C 161.476562 21.824219 160.566406 21.859375 159.667969 21.800781 C 159.4375 21.785156 159.148438 21.496094 159.03125 21.261719 C 158.589844 20.359375 158.179688 19.441406 157.808594 18.507812 C 157.613281 18.023438 157.332031 17.847656 156.816406 17.851562 C 155.433594 17.867188 154.050781 17.851562 152.667969 17.808594 C 152.074219 17.789062 151.765625 18.019531 151.5625 18.566406 C 151.222656 19.480469 150.796875 20.359375 150.445312 21.265625 C 150.285156 21.671875 150.074219 21.859375 149.613281 21.835938 C 148.769531 21.800781 147.925781 21.828125 146.9375 21.828125 C 147.078125 21.429688 147.167969 21.140625 147.28125 20.867188 C 149.105469 16.519531 150.945312 12.183594 152.742188 7.828125 C 153.003906 7.203125 153.335938 6.914062 154 7.019531 C 154.121094 7.039062 154.25 7.023438 154.375 7.023438 C 156.277344 7.007812 156.277344 7.007812 157.007812 8.71875 C 158.71875 12.734375 160.433594 16.75 162.144531 20.769531 C 162.265625 21.050781 162.367188 21.34375 162.554688 21.824219 "/>
<path style=" stroke:none;fill-rule:nonzero;fill:rgb(93.771362%,19.940186%,21.476746%);fill-opacity:1;" d="M 136.183594 21.882812 C 135.476562 21.882812 134.886719 21.871094 134.300781 21.886719 C 133.886719 21.894531 133.746094 21.691406 133.75 21.308594 C 133.757812 20.679688 133.746094 20.050781 133.746094 19.421875 C 133.746094 17.535156 133.753906 15.648438 133.742188 13.761719 C 133.738281 12.945312 133.726562 12.933594 132.894531 12.890625 C 132.171875 12.859375 131.445312 12.882812 130.726562 12.835938 C 130.105469 12.796875 129.921875 13.050781 129.929688 13.660156 C 129.960938 16.019531 129.945312 18.378906 129.945312 20.734375 C 129.945312 21.074219 129.945312 21.410156 129.945312 21.691406 C 129.789062 21.777344 129.738281 21.824219 129.683594 21.832031 C 127.492188 22.066406 127.507812 22.066406 127.527344 19.890625 C 127.554688 17.21875 127.554688 14.546875 127.570312 11.875 C 127.570312 11.535156 127.597656 11.199219 127.617188 10.808594 C 127.992188 10.792969 128.296875 10.765625 128.605469 10.765625 C 132.21875 10.761719 135.835938 10.761719 139.449219 10.765625 C 141.164062 10.765625 142.539062 11.921875 142.601562 13.613281 C 142.695312 16.15625 142.636719 18.707031 142.652344 21.253906 C 142.65625 21.714844 142.441406 21.84375 142.015625 21.828125 C 139.609375 21.757812 140.089844 22.121094 140.058594 20.015625 C 140.027344 18.253906 140.070312 16.492188 140.0625 14.730469 C 140.050781 13.320312 139.507812 12.808594 138.097656 12.816406 C 136.199219 12.824219 136.191406 12.824219 136.1875 14.714844 C 136.175781 17.039062 136.183594 19.363281 136.183594 21.882812 "/>
<path style=" stroke:none;fill-rule:nonzero;fill:rgb(93.771362%,19.940186%,21.476746%);fill-opacity:1;" d="M 123.6875 21.730469 C 123.6875 19.652344 123.6875 17.765625 123.6875 15.882812 C 123.6875 13.460938 123.46875 13.238281 121.050781 13.238281 C 120.546875 13.238281 120.042969 13.234375 119.539062 13.242188 C 118.539062 13.25 118.527344 13.25 118.511719 14.222656 C 118.472656 16.363281 118.449219 18.5 118.417969 20.640625 C 118.414062 21.011719 118.386719 21.378906 118.371094 21.679688 C 118.265625 21.765625 118.246094 21.796875 118.21875 21.800781 C 116.171875 22.050781 116.171875 22.050781 116.171875 20.042969 C 116.171875 16.046875 116.167969 12.050781 116.171875 8.054688 C 116.171875 7.023438 116.179688 7.023438 117.210938 7.019531 C 118.566406 7.011719 118.566406 7.011719 118.539062 8.339844 C 118.523438 8.9375 118.507812 9.535156 118.511719 10.132812 C 118.515625 11.1875 118.519531 11.1875 119.535156 11.191406 C 120.699219 11.195312 121.863281 11.1875 123.027344 11.195312 C 124.738281 11.207031 126.027344 12.429688 126.054688 14.144531 C 126.09375 16.410156 126.046875 18.675781 126.074219 20.941406 C 126.082031 21.582031 125.816406 21.769531 125.230469 21.734375 C 124.738281 21.707031 124.242188 21.730469 123.6875 21.730469 "/>
<path style=" stroke:none;fill-rule:nonzero;fill:rgb(93.771362%,19.940186%,21.476746%);fill-opacity:1;" d="M 101.207031 15.160156 C 100.628906 13.519531 99.496094 12.546875 98.261719 12.566406 C 97.082031 12.585938 95.773438 13.722656 95.335938 15.160156 C 97.28125 15.160156 99.203125 15.160156 101.207031 15.160156 Z M 95.320312 17.054688 C 95.527344 18.695312 96.34375 19.46875 97.851562 19.492188 C 99.453125 19.515625 101.058594 19.496094 102.660156 19.503906 C 103.058594 19.503906 103.476562 19.414062 103.5 20.074219 C 103.542969 21.140625 103.519531 21.332031 102.785156 21.371094 C 101.097656 21.460938 99.394531 21.597656 97.714844 21.480469 C 95.085938 21.292969 93.621094 19.898438 93.109375 17.402344 C 92.605469 14.925781 93.5625 12.820312 95.78125 11.613281 C 99.078125 9.816406 103.488281 11.449219 103.574219 16.042969 C 103.59375 16.960938 103.601562 16.96875 102.632812 16.972656 C 100.527344 16.984375 98.421875 16.984375 96.316406 16.996094 C 95.984375 17 95.652344 17.035156 95.320312 17.054688 "/>
<path style=" stroke:none;fill-rule:nonzero;fill:rgb(93.771362%,19.940186%,21.476746%);fill-opacity:1;" d="M 108.675781 21.734375 C 107.605469 21.734375 106.539062 21.742188 105.46875 21.730469 C 104.664062 21.71875 104.625 21.660156 104.621094 20.761719 C 104.621094 19.847656 104.65625 19.777344 105.445312 19.777344 C 107.207031 19.78125 108.96875 19.816406 110.730469 19.816406 C 111.679688 19.816406 112.242188 19.261719 112.160156 18.46875 C 112.09375 17.820312 111.652344 17.382812 110.972656 17.375 C 109.871094 17.355469 108.769531 17.390625 107.671875 17.394531 C 106.011719 17.402344 105.074219 16.636719 104.898438 14.972656 C 104.824219 14.277344 104.886719 13.515625 105.097656 12.847656 C 105.445312 11.722656 106.28125 11.105469 107.507812 11.105469 C 109.519531 11.105469 111.53125 11.09375 113.542969 11.105469 C 114.335938 11.109375 114.359375 11.160156 114.355469 12.09375 C 114.347656 12.960938 114.34375 12.976562 113.554688 12.976562 C 112.105469 12.980469 110.660156 12.96875 109.214844 12.96875 C 108.964844 12.96875 108.710938 12.953125 108.460938 12.984375 C 107.65625 13.085938 107.132812 13.636719 107.15625 14.335938 C 107.183594 15.054688 107.710938 15.601562 108.519531 15.617188 C 109.714844 15.648438 110.910156 15.636719 112.105469 15.578125 C 113.96875 15.484375 114.835938 16.714844 114.988281 18.261719 C 115.15625 19.972656 114.027344 21.46875 112.445312 21.710938 C 112.320312 21.730469 112.195312 21.753906 112.070312 21.753906 C 110.941406 21.757812 109.808594 21.757812 108.675781 21.757812 C 108.675781 21.75 108.675781 21.742188 108.675781 21.734375 "/>
<g clip-path="url(#clip3)" clip-rule="nonzero">
<path style=" stroke:none;fill-rule:nonzero;fill:rgb(93.771362%,19.940186%,21.476746%);fill-opacity:1;" d="M 174.089844 15.503906 C 174.011719 15.070312 173.972656 14.757812 173.894531 14.460938 C 173.582031 13.21875 172.328125 12.679688 171.246094 13.371094 C 171.035156 13.507812 170.929688 13.949219 170.925781 14.25 C 170.894531 16.324219 170.910156 18.398438 170.910156 20.476562 C 170.910156 20.816406 170.910156 21.160156 170.910156 21.582031 C 169.988281 21.582031 169.132812 21.582031 168.214844 21.582031 C 168.214844 18 168.214844 14.4375 168.214844 10.753906 C 168.714844 10.753906 169.179688 10.75 169.640625 10.753906 C 170.992188 10.757812 172.347656 10.714844 173.695312 10.785156 C 175.738281 10.886719 176.75 12.117188 176.664062 13.925781 C 176.585938 15.589844 176.941406 15.476562 175.097656 15.503906 C 174.785156 15.507812 174.472656 15.503906 174.089844 15.503906 "/>
</g>
<path style=" stroke:none;fill-rule:nonzero;fill:rgb(93.771362%,19.940186%,21.476746%);fill-opacity:1;" d="M 166.90625 21.632812 C 166.644531 21.648438 166.433594 21.675781 166.21875 21.679688 C 165.59375 21.683594 164.96875 21.679688 164.273438 21.679688 C 164.273438 18.054688 164.273438 14.488281 164.273438 10.769531 C 164.679688 10.769531 165.101562 10.769531 165.523438 10.769531 C 165.960938 10.769531 166.398438 10.769531 166.90625 10.769531 C 166.90625 14.398438 166.90625 17.960938 166.90625 21.632812 "/>
<path style=" stroke:none;fill-rule:nonzero;fill:rgb(93.771362%,19.940186%,21.476746%);fill-opacity:1;" d="M 165.632812 6.167969 C 166.101562 6.277344 166.546875 6.320312 166.9375 6.488281 C 167.863281 6.882812 168.035156 7.925781 167.332031 8.640625 C 166.582031 9.410156 165.019531 9.585938 164.105469 9.015625 C 163.574219 8.679688 163.367188 8.199219 163.410156 7.582031 C 163.453125 7.003906 163.800781 6.664062 164.296875 6.488281 C 164.730469 6.335938 165.195312 6.269531 165.632812 6.167969 "/>
</g>
</svg>

<svg xmlns="http://www.w3.org/2000/svg" width="235.56" height="44.68" viewBox="0 0 176.67 33.51"><defs><clipPath id="a"><path d="M2 15h88v18.512H2Zm0 0"/></clipPath><clipPath id="b"><path d="M0 15h90v18.512H0Zm0 0"/></clipPath><clipPath id="c"><path d="M168 10h8.672v12H168Zm0 0"/></clipPath></defs><path d="M65.785 14.727c0 5.597-4.539 10.132-10.133 10.132A10.13 10.13 0 0 1 45.52 14.727 10.13 10.13 0 0 1 55.652 4.594c5.594 0 10.133 4.535 10.133 10.133" style="stroke:none;fill-rule:nonzero;fill:#ef3337;fill-opacity:1"/><path d="M51.695 15.133H24.133C30.656 3.78 44.707.27 44.707.27H72.27S54.707 4.863 51.695 15.133" style="stroke:none;fill-rule:nonzero;fill:#ef3337;fill-opacity:1"/><path d="M24.605 14.863h26.891c1.656-5.297 7.149-9.039 11.492-11.254 2.918-1.488 5.723-2.504 7.453-3.07H44.742c-.734.195-13.8 3.777-20.137 14.324m27.293.54h-28.23l.23-.407C30.402 3.68 44.5.043 44.641.008L44.707 0h29.664L72.34.531c-.176.047-17.453 4.672-20.383 14.676z" style="stroke:none;fill-rule:nonzero;fill:#fff;fill-opacity:1"/><g clip-path="url(#a)"><path d="M2.688 15.941h49.18s-2.43 8.649 37.562 17.297c-.27.27-86.742-17.297-86.742-17.297" style="stroke:none;fill-rule:nonzero;fill:#ef3337;fill-opacity:1"/></g><g clip-path="url(#b)"><path d="M5.375 16.21c22.016 4.47 56.32 11.403 73.504 14.778C59.48 25.816 53.839 20.922 52.23 18.25c-.566-.937-.664-1.645-.66-2.04Zm84.031 17.302c-1.57 0-83.293-16.598-86.773-17.305L0 15.672h52.227l-.098.344c0 .004-.18.757.61 2.027 1.87 3.012 9.128 8.957 36.745 14.93l.485.105-.43.43z" style="stroke:none;fill-rule:nonzero;fill:#fff;fill-opacity:1"/></g><path d="M88.484 14.285c-.007-1.555-.464-2.863-1.46-3.957-1.833-2.008-4.762-1.96-6.551.09-1.653 1.902-1.836 4.766-.442 6.93 1.785 2.765 5.426 2.867 7.367.207a5.7 5.7 0 0 0 1.086-3.27m1.621 4.89c.875 0 1.528.012 2.18-.003.477-.008.684.187.664.676-.027.62-.008 1.242-.008 1.988h-1.28c-2.641.004-5.282.02-7.927-.004-1.863-.016-3.601-.488-5.148-1.57-4.531-3.16-4.395-9.328.266-12.317 3.414-2.187 8.18-1.71 10.976 1.094 2.578 2.59 2.918 6.3.852 9.309zM155 10.508l-.242.012-2.215 4.828c1.629-.012 3.074.164 4.617-.055-.758-1.676-1.46-3.23-2.16-4.785m7.555 11.316c-1.078 0-1.989.035-2.887-.023-.23-.016-.52-.305-.637-.54a39 39 0 0 1-1.222-2.753c-.196-.485-.477-.66-.993-.656a98 98 0 0 1-4.148-.043c-.594-.02-.902.21-1.106.757-.34.914-.765 1.793-1.117 2.7-.16.406-.37.593-.832.57-.843-.035-1.687-.008-2.675-.008.14-.398.23-.687.343-.96 1.824-4.348 3.664-8.684 5.461-13.04.262-.625.594-.914 1.258-.808.121.02.25.003.375.003 1.902-.015 1.902-.015 2.633 1.696 1.71 4.015 3.426 8.031 5.137 12.05.12.282.222.575.41 1.055M136.184 21.883c-.707 0-1.297-.012-1.883.004-.414.008-.555-.196-.551-.578.008-.63-.004-1.258-.004-1.887 0-1.887.008-3.774-.004-5.66-.004-.817-.015-.828-.847-.871-.723-.032-1.45-.008-2.168-.055-.622-.04-.805.215-.797.824.03 2.36.015 4.719.015 7.074v.957c-.156.086-.207.133-.261.141-2.192.234-2.176.234-2.157-1.941.028-2.672.028-5.344.043-8.016 0-.34.028-.676.047-1.066.375-.016.68-.043.988-.043q5.422-.006 10.844 0c1.715 0 3.09 1.156 3.153 2.847.093 2.543.035 5.094.05 7.64.004.462-.21.59-.636.575-2.407-.07-1.926.293-1.957-1.812-.032-1.762.011-3.524.004-5.286-.012-1.41-.555-1.921-1.965-1.914-1.899.008-1.907.008-1.91 1.899-.012 2.324-.004 4.648-.004 7.168M123.688 21.73v-5.847c0-2.422-.22-2.645-2.637-2.645-.504 0-1.008-.004-1.512.004-1 .008-1.012.008-1.027.98-.04 2.141-.063 4.278-.094 6.419-.004.37-.031.738-.047 1.039-.105.086-.125.117-.152.12-2.047.25-2.047.25-2.047-1.757 0-3.996-.004-7.992 0-11.988 0-1.032.008-1.032 1.039-1.035 1.355-.008 1.355-.008 1.328 1.32-.016.598-.031 1.195-.027 1.793.004 1.055.008 1.055 1.023 1.058 1.164.004 2.328-.004 3.492.004 1.711.012 3 1.235 3.028 2.95.039 2.265-.008 4.53.02 6.796.007.641-.259.829-.845.793-.492-.027-.988-.004-1.543-.004M101.207 15.16c-.578-1.64-1.71-2.613-2.945-2.594-1.18.02-2.489 1.157-2.926 2.594zm-5.887 1.895c.207 1.64 1.024 2.414 2.532 2.437 1.601.024 3.207.004 4.808.012.399 0 .817-.09.84.57.043 1.067.02 1.258-.715 1.297-1.687.09-3.39.227-5.07.11-2.63-.188-4.094-1.583-4.606-4.079-.504-2.476.454-4.582 2.672-5.789 3.297-1.797 7.707-.164 7.793 4.43.02.918.028.926-.941.93-2.106.011-4.211.011-6.317.023-.332.004-.664.04-.996.059M108.676 21.734c-1.07 0-2.137.008-3.207-.004-.805-.011-.844-.07-.848-.968 0-.914.035-.985.824-.985 1.762.004 3.524.04 5.285.04.95 0 1.512-.555 1.43-1.348-.066-.649-.508-1.086-1.187-1.094-1.102-.02-2.203.016-3.301.02-1.66.007-2.598-.758-2.774-2.422a5.4 5.4 0 0 1 .2-2.125c.347-1.125 1.183-1.743 2.41-1.743 2.012 0 4.023-.011 6.035 0 .793.004.816.055.812.989-.007.867-.011.883-.8.883-1.45.003-2.895-.008-4.34-.008-.25 0-.504-.016-.754.015-.805.102-1.328.653-1.305 1.352.028.719.555 1.266 1.364 1.281q1.792.048 3.585-.039c1.864-.094 2.73 1.137 2.883 2.684.168 1.71-.96 3.207-2.543 3.449-.125.02-.25.043-.375.043q-1.694.005-3.394.004z" style="stroke:none;fill-rule:nonzero;fill:#ef3337;fill-opacity:1"/><g clip-path="url(#c)"><path d="M174.09 15.504c-.078-.434-.117-.746-.195-1.043-.313-1.242-1.567-1.781-2.649-1.09-.21.137-.316.578-.32.879-.031 2.074-.016 4.148-.016 6.227v1.105h-2.695V10.754c.5 0 .965-.004 1.426 0 1.351.004 2.707-.04 4.054.031 2.043.102 3.055 1.332 2.97 3.14-.08 1.665.276 1.552-1.567 1.579-.313.004-.625 0-1.008 0" style="stroke:none;fill-rule:nonzero;fill:#ef3337;fill-opacity:1"/></g><path d="M166.906 21.633c-.261.015-.472.043-.687.047-.625.004-1.25 0-1.946 0V10.77h2.633zM165.633 6.168c.469.11.914.152 1.304.32.926.395 1.098 1.438.395 2.153-.75.77-2.312.945-3.227.375-.53-.336-.738-.817-.695-1.434.043-.578.39-.918.887-1.094.433-.152.898-.218 1.336-.32" style="stroke:none;fill-rule:nonzero;fill:#ef3337;fill-opacity:1"/></svg>
